elementary-icon-theme/elementary/panel/22/gtg-panel.svg

<?xml version="1.0" encoding="UTF-8" standalone="no"?>
<!-- Created with Inkscape (http://www.inkscape.org/) -->
<svg
   xmlns:svg="http://www.w3.org/2000/svg"
   xmlns="http://www.w3.org/2000/svg"
   xmlns:xlink="http://www.w3.org/1999/xlink"
   version="1.0"
   width="22"
   height="22"
   id="svg3212">
  <defs
     id="defs3214">
    <linearGradient
       id="linearGradient3587-6-5">
      <stop
         id="stop3589-9-2"
         style="stop-color:#000000;stop-opacity:1"
         offset="0" />
      <stop
         id="stop3591-7-4"
         style="stop-color:#363636;stop-opacity:1"
         offset="1" />
    </linearGradient>
    <linearGradient
       x1="32.361256"
       y1="4.561305"
       x2="32.361256"
       y2="18.561304"
       id="linearGradient2401"
       xlink:href="#linearGradient3587-6-5"
       gradientUnits="userSpaceOnUse"
       gradientTransform="translate(-21.361257,-0.561305)" />
  </defs>
  <g
     id="layer1">
    <path
       d="M 5,5 C 3.892,5 3,5.892 3,7 L 3,17 C 3,18.108 3.892,19 5,19 L 17,19 C 18.108,19 19,18.108 19,17 L 19,7 C 19,5.892 18.108,5 17,5 L 5,5 z M 14.03125,7 C 14.086419,7.005256 14.166876,7.0358901 14.21875,7.0625 L 15.78125,7.84375 C 15.988749,7.9501889 16.050882,8.2114593 15.9375,8.40625 L 11.0625,16.78125 C 10.975693,16.930386 10.793876,17.020032 10.625,17 C 10.573304,16.993868 10.517381,16.993699 10.46875,16.96875 C 10.463502,16.966311 6.2187499,13.65625 6.21875,13.65625 C 6.0112529,13.549811 5.9491197,13.288537 6.0625,13.09375 L 7.09375,11.84375 C 7.2071332,11.648957 7.4800012,11.581059 7.6875,11.6875 L 10,13.4375 L 13.625,7.21875 C 13.710038,7.0726566 13.865742,6.9842316 14.03125,7 z"
       id="path3208"
       style="opacity:0.6;fill:#ffffff;fill-opacity:1;fill-rule:nonzero;stroke:none;stroke-width:1;stroke-linecap:square;stroke-linejoin:miter;marker:none;marker-start:none;marker-mid:none;marker-end:none;stroke-miterlimit:4;stroke-dasharray:none;stroke-dashoffset:0;stroke-opacity:1;visibility:visible;display:inline;overflow:visible;enable-background:accumulate" />
    <path
       d="M 5,4 C 3.892,4 3,4.892 3,6 L 3,16 C 3,17.108 3.892,18 5,18 L 17,18 C 18.108,18 19,17.108 19,16 L 19,6 C 19,4.892 18.108,4 17,4 L 5,4 z M 14.03125,6 C 14.086419,6.005256 14.166876,6.0358901 14.21875,6.0625 L 15.78125,6.84375 C 15.988749,6.9501889 16.050882,7.2114593 15.9375,7.40625 L 11.0625,15.78125 C 10.975693,15.930386 10.793876,16.020032 10.625,16 C 10.573304,15.993868 10.517381,15.993699 10.46875,15.96875 C 10.463502,15.966311 6.2187499,12.65625 6.21875,12.65625 C 6.0112529,12.549811 5.9491197,12.288537 6.0625,12.09375 L 7.09375,10.84375 C 7.2071332,10.648957 7.4800012,10.581059 7.6875,10.6875 L 10,12.4375 L 13.625,6.21875 C 13.710038,6.0726566 13.865742,5.9842316 14.03125,6 z"
       id="rect2386"
       style="opacity:0.7;fill:url(#linearGradient2401);fill-opacity:1;fill-rule:nonzero;stroke:none;stroke-width:1;stroke-linecap:square;stroke-linejoin:miter;marker:none;marker-start:none;marker-mid:none;marker-end:none;stroke-miterlimit:4;stroke-dasharray:none;stroke-dashoffset:0;stroke-opacity:1;visibility:visible;display:inline;overflow:visible;enable-background:accumulate" />
  </g>
</svg>

<?xml version="1.0" encoding="UTF-8" standalone="no"?>
<!-- Created with Inkscape (http://www.inkscape.org/) -->

<svg
   xmlns:dc="http://purl.org/dc/elements/1.1/"
   xmlns:cc="http://creativecommons.org/ns#"
   xmlns:rdf="http://www.w3.org/1999/02/22-rdf-syntax-ns#"
   xmlns:svg="http://www.w3.org/2000/svg"
   xmlns="http://www.w3.org/2000/svg"
   xmlns:xlink="http://www.w3.org/1999/xlink"
   xmlns:sodipodi="http://sodipodi.sourceforge.net/DTD/sodipodi-0.dtd"
   xmlns:inkscape="http://www.inkscape.org/namespaces/inkscape"
   version="1.0"
   width="20"
   height="22"
   id="svg3212"
   inkscape:version="0.48.0 r9654"
   sodipodi:docname="gtg-panel.svg">
  <metadata
     id="metadata13">
    <rdf:RDF>
      <cc:Work
         rdf:about="">
        <dc:format>image/svg+xml</dc:format>
        <dc:type
           rdf:resource="http://purl.org/dc/dcmitype/StillImage" />
      </cc:Work>
    </rdf:RDF>
  </metadata>
  <sodipodi:namedview
     pagecolor="#ffffff"
     bordercolor="#666666"
     borderopacity="1"
     objecttolerance="10"
     gridtolerance="10"
     guidetolerance="10"
     inkscape:pageopacity="0"
     inkscape:pageshadow="2"
     inkscape:window-width="1119"
     inkscape:window-height="638"
     id="namedview11"
     showgrid="false"
     inkscape:zoom="6.6136364"
     inkscape:cx="-15.309278"
     inkscape:cy="86.818588"
     inkscape:window-x="0"
     inkscape:window-y="24"
     inkscape:window-maximized="0"
     inkscape:current-layer="svg3212" />
  <defs
     id="defs3214">
    <linearGradient
       id="linearGradient3587-6-5">
      <stop
         id="stop3589-9-2"
         style="stop-color:#000000;stop-opacity:1"
         offset="0" />
      <stop
         id="stop3591-7-4"
         style="stop-color:#363636;stop-opacity:1"
         offset="1" />
    </linearGradient>
    <linearGradient
       x1="32.361256"
       y1="4.561305"
       x2="32.361256"
       y2="18.561304"
       id="linearGradient2401"
       xlink:href="#linearGradient3587-6-5"
       gradientUnits="userSpaceOnUse"
       gradientTransform="translate(-21.361257,-0.561305)" />
  </defs>
  <g
     id="layer1"
     transform="translate(-1,0)">
    <path
       d="M 5,5 C 3.892,5 3,5.892 3,7 l 0,10 c 0,1.108 0.892,2 2,2 l 12,0 c 1.108,0 2,-0.892 2,-2 L 19,7 C 19,5.892 18.108,5 17,5 L 5,5 z m 9.03125,2 c 0.05517,0.00526 0.135626,0.03589 0.1875,0.0625 l 1.5625,0.78125 c 0.207499,0.1064389 0.269632,0.3677093 0.15625,0.5625 l -4.875,8.375 C 10.975693,16.930386 10.793876,17.020032 10.625,17 c -0.0517,-0.0061 -0.107619,-0.0063 -0.15625,-0.03125 -0.0052,-0.0024 -4.2500001,-3.3125 -4.25,-3.3125 C 6.0112529,13.549811 5.9491197,13.288537 6.0625,13.09375 l 1.03125,-1.25 C 7.2071332,11.648957 7.4800012,11.581059 7.6875,11.6875 L 10,13.4375 13.625,7.21875 C 13.710038,7.0726566 13.865742,6.9842316 14.03125,7 z"
       id="path3208"
       style="opacity:0.6;fill:#ffffff;fill-opacity:1;fill-rule:nonzero;stroke:none;stroke-width:1;marker:none;visibility:visible;display:inline;overflow:visible;enable-background:accumulate"
       inkscape:connector-curvature="0" />
    <path
       d="M 5,4 C 3.892,4 3,4.892 3,6 l 0,10 c 0,1.108 0.892,2 2,2 l 12,0 c 1.108,0 2,-0.892 2,-2 L 19,6 C 19,4.892 18.108,4 17,4 L 5,4 z m 9.03125,2 c 0.05517,0.00526 0.135626,0.03589 0.1875,0.0625 l 1.5625,0.78125 c 0.207499,0.1064389 0.269632,0.3677093 0.15625,0.5625 l -4.875,8.375 C 10.975693,15.930386 10.793876,16.020032 10.625,16 c -0.0517,-0.0061 -0.107619,-0.0063 -0.15625,-0.03125 -0.0052,-0.0024 -4.2500001,-3.3125 -4.25,-3.3125 C 6.0112529,12.549811 5.9491197,12.288537 6.0625,12.09375 l 1.03125,-1.25 C 7.2071332,10.648957 7.4800012,10.581059 7.6875,10.6875 L 10,12.4375 13.625,6.21875 C 13.710038,6.0726566 13.865742,5.9842316 14.03125,6 z"
       id="rect2386"
       style="opacity:0.7;fill:url(#linearGradient2401);fill-opacity:1;fill-rule:nonzero;stroke:none;stroke-width:1;marker:none;visibility:visible;display:inline;overflow:visible;enable-background:accumulate"
       inkscape:connector-curvature="0" />
  </g>
</svg>
